usr/share/icons/biglinux-icons-material/16/actions/mail-reply-list.svg

<svg xmlns="http://www.w3.org/2000/svg" viewBox="0 0 16 16">
  <defs id="defs3051">
    <style type="text/css" id="current-color-scheme">
      .ColorScheme-Text {
        color:#dedede;
      }
      </style>
  </defs>
 <path style="fill:currentColor;fill-opacity:1;stroke:none" 
     d="M 3 2 C 2.4477153 2 2 2.4477153 2 3 C 2 3.5522847 2.4477153 4 3 4 C 3.5522847 4 4 3.5522847 4 3 C 4 2.4477153 3.5522847 2 3 2 z M 5 2 L 5 3 L 7 3 L 13 3 L 13 2 L 7 2 L 5 2 z M 5 4 L 5 5 L 7 5 L 11 5 L 11 4 L 7 4 L 5 4 z M 7 6 L 2 10 L 7 14 L 7 11 L 12 11 L 12 9 L 7 9 L 7 6 z "
     class="ColorScheme-Text"
     />
</svg>

<svg xmlns="http://www.w3.org/2000/svg" viewBox="0 0 16 16"><path d="M3 2a1 1 0 1 0 0 2 1 1 0 0 0 0-2zm2 0v1h8V2H5zm0 2v1h6V4H5zm2 2-5 4 5 4v-3h5V9H7V6z" style="fill:currentColor;fill-opacity:1;stroke:none;color:#dedede"/></svg>
